svgs/google_fit.svg

<svg width="192" height="192" viewBox="0 0 192 192" fill="none" xmlns="http://www.w3.org/2000/svg">
<path d="M110.409 53.0416C123.687 39.7638 145.215 39.7638 158.492 53.0416V53.0416C171.77 66.3195 171.77 87.8471 158.492 101.125L96.267 163.35L48.1838 115.267L110.409 53.0416Z" stroke="black" stroke-width="12" stroke-linejoin="round"/>
<path d="M96.267 163.35L34.0416 101.125C20.7638 87.8471 20.7638 66.3194 34.0416 53.0416V53.0416C47.3195 39.7638 68.8471 39.7638 82.1249 53.0416L96.267 67.1838" stroke="black" stroke-width="12" stroke-linejoin="round"/>
</svg>

<svg width="192" height="192" fill="none" xmlns="http://www.w3.org/2000/svg"><path d="M110.409 53.042c13.278-13.278 34.806-13.278 48.083 0 13.278 13.278 13.278 34.805 0 48.083L96.267 163.35l-48.083-48.083 62.225-62.225z" stroke="#000" stroke-width="12" stroke-linejoin="round"/><path d="m96.267 163.35-62.225-62.225c-13.278-13.278-13.278-34.806 0-48.083 13.277-13.278 34.805-13.278 48.083 0l14.142 14.142" stroke="#000" stroke-width="12" stroke-linejoin="round"/></svg>
